svgs/thin/bone.svg

<svg xmlns="http://www.w3.org/2000/svg" viewBox="0 0 576 512"><!-- Font Awesome Pro 6.0.0-alpha2 by @fontawesome - https://fontawesome.com License - https://fontawesome.com/license (Commercial License) --><path d="M534.875 244.5C560.125 232 576 206.25 576 178V173.613C576 138.064 552.506 105.26 517.76 97.738C512.332 96.562 506.928 96 501.625 96C469.623 96 441.125 116.498 431 146.875L430.812 147.443C425.213 164.434 409.477 176 391.586 176H184.41C166.416 176 150.723 164.252 145.094 147.162L145 146.875C134.875 116.5 106.375 96 74.375 96C69.07 96 63.67 96.562 58.24 97.738C23.494 105.26 0 138.064 0 173.613V178C0 206.25 15.875 232 41.125 244.5C50.5 249.25 50.5 262.75 41.125 267.5C15.875 280 0 305.75 0 334V338.387C0 373.936 23.494 406.74 58.24 414.262C63.668 415.436 69.072 416 74.375 416C106.377 416 134.875 395.502 145 365.125C145.062 364.936 145.125 364.748 145.188 364.559C150.785 347.566 166.523 336 184.414 336H391.59C409.572 336 425.273 347.732 430.896 364.812C430.932 364.918 430.965 365.021 431 365.125C441.125 395.5 469.625 416 501.625 416C506.93 416 512.33 415.438 517.76 414.262C552.506 406.74 576 373.936 576 338.387V334C576 305.75 560.125 280 534.875 267.5C525.5 262.75 525.5 249.25 534.875 244.5ZM527.775 281.838C547.652 291.678 560 311.666 560 334V338.387C560 367.568 540.812 392.9 514.375 398.623C510.154 399.537 505.865 400 501.625 400C476.424 400 454.141 383.951 446.094 359.809C438.254 335.998 416.352 320 391.59 320H184.414C159.656 320 137.785 335.895 129.82 360.064C121.859 383.951 99.578 400 74.375 400C70.135 400 65.846 399.537 61.625 398.623C35.188 392.9 16 367.568 16 338.387V334C16 311.666 28.348 291.678 48.355 281.771C58.102 276.834 64.156 266.959 64.156 256S58.102 235.164 48.225 230.16C28.348 220.32 16 200.334 16 178V173.613C16 144.432 35.188 119.1 61.625 113.377C65.846 112.463 70.135 112 74.375 112C99.578 112 121.859 128.049 129.896 152.168C137.744 175.992 159.65 192 184.41 192H391.586C416.342 192 438.213 176.105 446.18 151.934C454.141 128.049 476.422 112 501.625 112C505.865 112 510.154 112.463 514.375 113.375C540.812 119.1 560 144.432 560 173.613V178C560 200.334 547.652 220.32 527.643 230.227C517.898 235.166 511.844 245.041 511.844 256S517.898 276.834 527.775 281.838Z"/></svg>

<svg xmlns="http://www.w3.org/2000/svg" viewBox="0 0 576 512"><!--! Font Awesome Pro 6.0.0-alpha3 by @fontawesome - https://fontawesome.com License - https://fontawesome.com/license (Commercial License) --><path d="M534.9 244.5C560.1 232 576 206.3 576 178V173.6c0-35.55-23.49-68.35-58.24-75.88C512.3 96.56 506.9 96 501.6 96c-32 0-60.5 20.5-70.63 50.88L430.8 147.4C425.2 164.4 409.5 176 391.6 176H184.4c-17.99 0-33.75-11.94-39.38-29.03C134.9 116.6 106.4 96 74.38 96C69.07 96 63.67 96.56 58.24 97.74C23.49 105.3 0 138.1 0 173.6v4.387C0 206.3 15.88 232 41.13 244.5c9.375 4.75 9.375 18.25 0 23C15.88 280 0 305.8 0 334v4.387c0 35.55 23.49 68.35 58.24 75.88C63.67 415.4 69.07 416 74.38 416c32 0 60.5-20.5 70.63-50.88l.1875-.5664C150.8 347.6 166.5 336 184.4 336h207.2c17.98 0 33.68 11.73 39.31 28.81c.0352 .1055 .0684 .209 .1035 .3125C441.1 395.5 469.6 416 501.6 416c5.305 0 10.71-.5625 16.13-1.738C552.5 406.7 576 373.9 576 338.4v-4.387C576 305.8 560.1 280 534.9 267.5C525.5 262.8 525.5 249.3 534.9 244.5zM527.8 281.8C547.7 291.7 560 311.7 560 334v4.387c0 29.18-19.19 54.51-45.63 60.24C510.2 399.5 505.9 400 501.6 400c-25.2 0-47.48-16.05-55.53-40.19C438.3 335.1 416.4 320 391.6 320H184.4c-24.76 0-46.63 15.89-54.59 40.06C121.9 383.1 99.58 400 74.38 400c-4.24 0-8.529-.4629-12.75-1.377C35.19 392.9 16 367.6 16 338.4v-4.387c0-22.33 12.35-42.32 32.36-52.23C58.1 276.8 64.16 266.1 64.16 256S58.1 235.2 48.22 230.2C28.35 220.3 16 200.3 16 178V173.6c0-29.18 19.19-54.51 45.63-60.24C65.85 112.5 70.13 112 74.38 112c25.2 0 47.48 16.05 55.52 40.17C137.7 175.1 159.7 192 184.4 192h207.2c24.76 0 46.63-15.89 54.59-40.07C454.1 128 476.4 112 501.6 112c4.24 0 8.529 .4629 12.75 1.375C540.8 119.1 560 144.4 560 173.6v4.387c0 22.33-12.35 42.32-32.36 52.23C517.9 235.2 511.8 245 511.8 256S517.9 276.8 527.8 281.8z"/></svg>
